src/normal/bat_chg.svg

<!-- Generated by IcoMoon.io -->
<svg version="1.1" xmlns="http://www.w3.org/2000/svg" width="24" height="24" viewBox="0 0 24 24">
<title>battery-charging</title>
<path d="M20.812 8c-0.412-1.164-1.523-2-2.826-2h-14.988c-1.653 0-2.998 1.346-2.998 3v7c0 1.654 1.345 3 2.998 3h14.987c1.303 0 2.414-0.836 2.826-2h2.169v-9h-2.168zM18.983 16c0 0.551-0.447 1-0.998 1h-14.987c-0.552 0-1-0.449-1-1v-7c0-0.551 0.448-1 1-1h14.987c0.551 0 0.998 0.449 0.998 1v7zM20.982 15h-0.999v-5h0.999v5zM10.097 15l0.998-2h4.996l-5.994-3-1 2h-4.996l5.996 3z"></path>
</svg>

<svg xmlns="http://www.w3.org/2000/svg" width="24" height="24"><path d="M20.812 8a3.002 3.002 0 00-2.826-2H2.998A3.003 3.003 0 000 9v7c0 1.654 1.345 3 2.998 3h14.987a3.002 3.002 0 002.826-2h2.169V8h-2.168zm-1.829 8a1 1 0 01-.998 1H2.998c-.552 0-1-.449-1-1V9c0-.551.448-1 1-1h14.987a1 1 0 01.998 1v7zm1.999-1h-.999v-5h.999v5zm-10.885 0l.998-2h4.996l-5.994-3-1 2H4.101l5.996 3z"/></svg>
